X:1
T:Ave Regina coelorum - Lasso
T:#
%%score [ 1 2 3 4 ]
L:1/8
Q:1/4=184
M:none
K:C
V:1 treble nm="Soprano" snm="S"
V:2 treble nm="Alto" snm="A"
V:3 treble-8 nm="Tenor" snm="T"
V:4 bass nm="Bass" snm="B"
V:1
"^Ave Regina coelorum""^Orlando di Lasso\n(1530-94)" z8 G8- | G8 A8 | _B8 A8 | G4 A8 (G4- | %4
w: A\-|* ve|Re- gi-|na coe- lo\-|
 G2 ^FE F4) G8- |[M:4/2] G8 (A8 | c8) c4 (c4- | c2 BA B2 c2 d4) c4 | A4 _B8 A4 | G16 | G8 z4 (G4- | %11
w: * * * * rum:|* A\-|* ve Do\-|* * * * * * mi-|na An- ge-|lo-|rum: Sal\-|
 G2 A2 B2 c2 d2 c2 B2 A2 | G2 F2 E2 F2 G2 A4 ^G2) | A8 d8 | G4 (c6 BA B4) | E8 z8 | G8 A4 B4- | %17
w: ||ve ra-|dix san\- * * *|cta,|ex qua mun\-|
 B4 (c6 B2 A4) | G4 G4 G8 | G4 (c6 A2 d4) | c4 c8 A4 | z4 (A6 F2 _B4) | A8 A6 A2 | G8 ^F8 | %24
w: * do * *|lux est or-|ta. Gau\- * *|de, gau- de,|gau\- * *|de glo- ri-|o- sa,|
 z4 G8 E4 | A4 A4 c4 d4 | (e6 d2 c2 B2 A4- | A2 G2 G6 ^FE F4) | G4 d8 B4 | c8 A8 | B8 G8 | A8 F8 | %32
w: su- per|o- mnes spe- ci-|o\- * * * *||sa: Va- le,|va- le|val- de|de- co-|
 E4 E8 F4 | G8 A4 (A2 B2 | c2 B2 c4) B8 | z16 | E8 F8 | G4 (A6 ^G^F G4) | A4 (c8 B2 A2 | B8 A8) | %40
w: ra, et pro|no- bis sem\- *|* * * per,||et pro|no- bis * * *|sem- per * *||
 z4 d4 (d2 c2 B2 A2 | G4)[Q:1/4=182] (c6[Q:1/4=179] B2[Q:1/4=178] A2[Q:1/4=177] G2 | %42
w: Chri- stum * * *|* ex\- * * *|
[Q:1/4=176] F2[Q:1/4=175] E2[Q:1/4=174] D2[Q:1/4=173] E2[Q:1/4=172] F2[Q:1/4=171] G2[Q:1/4=169] A4- | %43
w: |
[Q:1/4=167] A4)[Q:1/4=164] (G6[Q:1/4=162] ^F[Q:1/4=162]E[Q:1/4=161] F4) | %44
w: * o\- * * *|
[Q:1/4=160] !fermata!G16 |] %45
w: ra.|
V:2
 D16 | E8 F8- | F4 G8 (F4- | F2 ED E4) D8 | D8 D8 |[M:4/2] (E8 !courtesy!=F6 ED | C4) (F6 ED E4) | %7
w: A-|ve Re\-|* gi- na|* * * * coe-|lo- rum:|A\- * * *|* ve * * *|
 D12 E4 | F16 | E4 D4 E8- | E8 D8 | E8 F8 | E4 B,4 E8- | E4 D4 A,4 B,4 | (C2 D2 E2 C2 D8) | C8 z8 | %16
w: Do- mi-|na|An- ge- lo\-|* rum:|Sal- ve,|sal- ve, sal\-|* ve ra- dix|san\- * * * *|cta,|
 z4 C8 D4 | E4 E4 C4 D4 | (E8 D8) | E8 (F6 D2) | (F2 E2 C2 D2 E4) (D4- | D2 CB, C4) (F2 D2 G4- | %22
w: ex qua|mun- do lux est|or\- *|ta. Gau\- *|* * * * * de|* * * * glo\- * *|
 G4) F4 (E2 A,2 D4- | D2 ^CB, C4) D4 D4- | D4 D4 E4 G4- | (G2 FE F4) E4 D4 | C8 A,4 E4- | %27
w: * ri- o\- * *|* * * * sa, su\-|* per o- mnes|* * * * spe- ci-|o- sa, spe\-|
 E4 C4 D8 | D8 G8 | E8 F8 | D8 E8 | C4 A,4 (D8 | G,8) C8 | z4 E8 F4 | G4 (A6 GF G4) | E4 A,4 B,8 | %36
w: * ci- o-|sa: Va-|le, va-|le val-|de de- co\-|* ra,|et pro|no- bis * * *|sem- per, et|
 C12 D4 | E16 | (E8 G8) | G4 (G8 ^F2 E2) | ^F8 G4 D4 | (E3 F G4) C4 E4 | D4 A,4 D8- | D16 | %44
w: pro no~\-|bis|sem\- *|per Chri\- * *|* stum ex-|o\- * * ra, Chri-|stum ex- o\-||
 !fermata!B,16 |] %45
w: ra.|
V:3
 B16 | c12 c4 | d8 c8- | c8 B8 | A8 B8 |[M:4/2][K:treble-8] c16 | (A8 G8) | G12 G4 | d8 (c8- | %9
w: A-|ve Re-|gi- na|* coe-|lo- rum:|A-|ve *|Do- mi-|na An\-|
 c4 B2 A2 B4) B4 | (c2 G2 c4) B4 (B4- | B2 A2 G4) A4 (d2 c2 | B2 A2 G2 A2 B2 c2 B4) | A4 ^F8 G4 | %14
w: * * * * ge-|lo\- * * rum: Sal\-|* * * ve, sal\- *||ve ra- dix|
 (E2 =F2 G2 E2 G8) | A4 G4 A4 B4- | B4 E8 G4 | (E3 F G4) (A6 B2 | c2 B2 c6 BA B4) | c8 z8 | %20
w: san\- * * * *|cta, ex qua mun\-|* do lux|est * * or\- *||ta.|
 z4 (e6 c2 f4) | (e8 d8) | d6 d2 (c4 B2 A2 | e8) A8 | (B6 AB c4) B4 | d8 G8- | G4 A4 e4 (c4- | %27
w: Gau\- * *|de *|glo- ri- o\- * *|* sa,|su\- * * * per|o- mnes|* spe- ci- o\-|
 c2 B2 A2 G2 A8) | B8 z4 e4- | e4 c8 d4- | d4 B4 B4 (c4- | c2 A2 c6 BA B4) | c8 A8 | B4 c8 d4 | %34
w: |sa: Va\-|* le val\-|* de de- co\-||ra, et|pro no- bis|
 e8 e4 B4 | c4 d8 (e4- | e2 d2 c2 B2 A8) | (c8 B8 | c6 BA) d8- | d16 | (A8 B8- | B4) (e6 d2 c2 B2 | %42
w: sem- per, et|pro no- bis||sem\- *|* * * per||Chri\- *|* stum * * *|
 A2 G2 F2 G2 A4) F4 | (_B8 A8) | !fermata!G16 |] %45
w: * * * * * ex-|o\- *|ra.|
V:4
 G,16 | C,8 F,8 | _B,,8 C,8- | C,8 D,8 | D,8 G,8 |[M:4/2] z8 F,8- | F,8 C,8 | %7
w: A-|ve Re-|gi- na|* coe-|lo- rum:|A\-|* ve|
 (G,,6 A,,2 B,,4) C,4 | D,4 _B,,4 F,8 | (G,6 F,2 E,6 D,2) | C,8 G,8 | (E,8 D,8 | E,16) | %13
w: Do\- * * mi-|na An- ge-|lo\- * * *|* rum:|Sal\- *||
 A,,4 D,8 G,,4 | C,8 G,,8 | z4 C,8 D,4 | E,2 (D,2 C,2 B,,2 A,,4) G,,4 | G,4 C,4 F,8 | %18
w: ve ra- dix|san- cta,|ex qua|* mun\- * * * do|lux est or-|
 (E,4 D,2 C,2 G,8) | z4 (A,6 F,2 _B,4) | A,16- | A,8 D,8 | D,8 (A,4 G,2 F,2 | E,8) D,8 | %24
w: ta. * * *|Gau\- * *|de|* glo-|ri- o\- * *|* sa,|
 (G,6 F,2 E,4) E,4 | D,8 C,4 B,,4 | C,4 (A,,6 B,,2 C,2 D,2 | E,8 D,8) | G,8 z8 | A,8 F,8 | %30
w: su\- * * per|o- mnes spe-|ci- o\- * * *||sa:|Va- le|
 G,8 E,8 | F,8 D,8 | C,8 z8 | z16 | z8 E,8- | E,4 F,4 G,8 | (A,6 G,2 F,2 E,2 D,4) | %37
w: val- de|de- co-|ra,||et|* pro no-|bis * * * *|
 (C,4 B,,2 A,,2 E,8 | A,8) G,8- | G,8 D,8- | D,8 (G,6 F,2 | E,2 D,2 C,2 B,,2 A,,8) | D,16 | %43
w: sem\- * * *|* per,|* Chri\-|* stum *||ex-|
 (_B,,6 C,2 D,8) | !fermata!G,,16 |] %45
w: o\- * *|ra.|

